X: 1
T: Old Mother Flanagan
M: 4/4
L: 1/8
R: reel
K: Gmaj
|: g2 gg edBA | B2 BB AGED | GAGE DEGA | BABc d4 |
g2 gg edBA | B2 BB AGED | GAGE DEGA | BGAF G4 :|
|: GAGE DEGA | B2 B2 AGED | GAGE DEGA | BABc d4 |
c2 ed B2 dd | B2 BB AGED | GAGE DEGA | BGAF G4 :|
